svg/fluentui-system-icons/ic_fluent_draw_image_24_regular.svg

<svg width="24" height="24" viewBox="0 0 24 24" fill="none" xmlns="http://www.w3.org/2000/svg">
<path d="M20.9994 6.25C20.9994 4.45507 19.5444 3 17.7494 3H6.24943C4.45451 3 2.99943 4.45507 2.99943 6.25L2.99943 18.5327C2.99943 19.8363 4.57023 20.4949 5.49988 19.5811L9.52908 15.6208C9.53603 15.614 9.54282 15.6071 9.54944 15.6L11.4746 13.7148L11.5582 13.644C11.8496 13.4316 12.259 13.4553 12.5241 13.7148L14.6032 15.7512L15.6641 14.6903L13.5736 12.6431L13.4452 12.5266C12.5669 11.7885 11.2583 11.8273 10.4252 12.643L5.97258 17.0024H5.98357L4.49943 18.4612L4.49943 6.25C4.49943 5.2835 5.28293 4.5 6.24943 4.5H17.7494C18.7159 4.5 19.4994 5.2835 19.4994 6.25V11.2324C19.9783 11.0419 20.493 10.9685 20.9994 11.0122V6.25ZM17.5037 8.75212C17.5037 7.50831 16.4954 6.5 15.2515 6.5C14.0077 6.5 12.9994 7.50831 12.9994 8.75212C12.9994 9.99592 14.0077 11.0042 15.2515 11.0042C16.4954 11.0042 17.5037 9.99592 17.5037 8.75212ZM14.4994 8.75212C14.4994 8.33673 14.8362 8 15.2515 8C15.6669 8 16.0037 8.33673 16.0037 8.75212C16.0037 9.1675 15.6669 9.50423 15.2515 9.50423C14.8362 9.50423 14.4994 9.1675 14.4994 8.75212ZM13.1969 18.5719L19.0993 12.6695C19.9919 11.7768 21.4391 11.7768 22.3317 12.6695C23.2243 13.5621 23.2243 15.0093 22.3317 15.9019L16.4293 21.8043C16.0852 22.1485 15.654 22.3926 15.1818 22.5106L13.3511 22.9683C13.3013 22.9808 13.2517 22.9896 13.2027 22.9951C12.6117 23.1991 10.223 23.569 9.375 22.9072C8.80054 22.4588 8.91488 21.5728 9.15739 21.0887C9.19618 21.0113 9.13752 20.9098 9.05195 20.9232C8.39118 21.0264 7.80881 21.3738 7.22548 21.7219C6.44155 22.1896 5.65591 22.6583 4.676 22.5366C3.69713 22.4149 3.20792 21.8108 2.9659 21.2822C2.86699 21.0662 3.14549 20.8809 3.35403 20.9948C3.82265 21.2505 4.45973 21.4906 4.98511 21.3744C5.36023 21.2914 5.88893 20.9174 6.48138 20.4983C7.54665 19.7448 8.81804 18.8454 9.77342 19.2298C10.6124 19.5674 11.2327 20.3809 10.8033 21.3432C10.7506 21.4612 10.8036 21.6065 10.9296 21.6355C11.3529 21.7325 11.7077 21.7018 12.0626 21.5313L12.4906 19.8194C12.6086 19.3472 12.8527 18.916 13.1969 18.5719Z" fill="#212121"/>
</svg>

<svg xmlns="http://www.w3.org/2000/svg" width="24" height="24"><path d="M21 6.25A3.25 3.25 0 0 0 17.75 3H6.25A3.25 3.25 0 0 0 3 6.25v12.283c0 1.303 1.57 1.962 2.5 1.048l4.03-3.96a.634.634 0 0 0 .02-.021l1.925-1.885.083-.071a.75.75 0 0 1 .966.07l2.08 2.037 1.06-1.06-2.09-2.048-.129-.116a2.25 2.25 0 0 0-3.02.116l-4.452 4.36h.01L4.5 18.46V6.25c0-.966.784-1.75 1.75-1.75h11.5c.967 0 1.75.784 1.75 1.75v4.982c.48-.19.994-.263 1.5-.22V6.25Zm-3.496 2.502a2.252 2.252 0 1 0-4.505 0 2.252 2.252 0 0 0 4.505 0Zm-3.005 0a.752.752 0 1 1 1.505 0 .752.752 0 0 1-1.505 0Zm-1.302 9.82 5.902-5.902a2.285 2.285 0 1 1 3.233 3.232l-5.903 5.902a2.684 2.684 0 0 1-1.247.707l-1.83.457a.985.985 0 0 1-.15.027c-.59.204-2.979.574-3.827-.088-.574-.448-.46-1.334-.218-1.818.04-.078-.02-.18-.105-.166-.66.103-1.243.45-1.827.799-.783.468-1.57.936-2.549.815-.979-.122-1.468-.726-1.71-1.255-.099-.216.18-.401.388-.287.469.255 1.106.496 1.631.38.375-.084.904-.458 1.496-.877 1.066-.753 2.337-1.653 3.292-1.268.84.337 1.46 1.15 1.03 2.113-.052.118 0 .264.127.293.423.097.778.066 1.133-.105l.428-1.712c.118-.472.362-.903.706-1.247Z"/></svg>
